recipes/withspectrum/icon.svg

<svg height="512" viewBox="0 0 512 512" width="512" xmlns="http://www.w3.org/2000/svg" xmlns:xlink="http://www.w3.org/1999/xlink"><defs><radialGradient id="a" cx=".5" cy=".5" gradientTransform="matrix(1024 1024 -1024 1024 0 -1024)" gradientUnits="userSpaceOnUse" r=".5"><stop offset="0" stop-color="#7b16ff"/><stop offset="1" stop-color="#3818e5"/></radialGradient><path id="b" d="m512 256c0 240-16 256-256 256s-256-16-256-256 21.3333-256 256-256c240 0 256 16 256 256z"/><clipPath id="c" clip-rule="evenodd"><path clip-rule="evenodd" d="m236-220h512v512h-512z"/></clipPath></defs><g clip-path="url(#c)" transform="translate(-236 220)"><use fill="#c4c4c4" transform="translate(236 -220)" xlink:href="#b"/><use fill="url(#a)" transform="translate(236 -220)" xlink:href="#b"/><path d="m0 16c0-8.83656 7.16344-16 16-16h14c115.98 0 210 94.0202 210 210v14c0 8.837-7.163 16-16 16h-88c-8.837 0-16-7.163-16-16v-14c0-49.706-40.2944-90-90-90h-14c-8.83656 0-16-7.163-16-16z" fill="#fff" fill-rule="evenodd" transform="translate(372 -84)"/></g></svg>

<svg width="512" height="512" viewBox="0 0 512 512" version="1.1" xmlns="http://www.w3.org/2000/svg" xmlns:xlink="http://www.w3.org/1999/xlink">
<title>512</title>
<desc>Created using Figma</desc>
<g id="Canvas" transform="translate(-236 220)">
<clipPath id="clip-0" clip-rule="evenodd">
<path d="M 236 -220L 748 -220L 748 292L 236 292L 236 -220Z" fill="#FFFFFF"/>
</clipPath>
<g id="512" clip-path="url(#clip-0)">
<g id="Ellipse">
<use xlink:href="#path0_fill" transform="translate(236 -220)" fill="#C4C4C4"/>
<use xlink:href="#path0_fill" transform="translate(236 -220)" fill="url(#paint1_radial)"/>
</g>
<g id="mark">
<use xlink:href="#path1_fill" transform="translate(372 -84)" fill="#FFFFFF"/>
</g>
</g>
</g>
<defs>
<radialGradient id="paint1_radial" cx="0.5" cy="0.5" r="0.5" gradientUnits="userSpaceOnUse" gradientTransform="matrix(1024 1024 -1024 1024 0 -1024)">
<stop offset="0" stop-color="#7B16FF"/>
<stop offset="1" stop-color="#3818E5"/>
</radialGradient>
<path id="path0_fill" d="M 512 256C 512 496 496 512 256 512C 16 512 0 496 0 256C 0 16 21.3333 0 256 3.84993e-13C 496 7.57912e-13 512 16 512 256Z"/>
<path id="path1_fill" fill-rule="evenodd" d="M 0 16C 0 7.16344 7.16344 0 16 0L 30 0C 145.98 0 240 94.0202 240 210L 240 224C 240 232.837 232.837 240 224 240L 136 240C 127.163 240 120 232.837 120 224L 120 210C 120 160.294 79.7056 120 30 120L 16 120C 7.16344 120 0 112.837 0 104L 0 16Z"/>
</defs>
</svg>
